img/tg-white.svg

<svg width="19" height="19" viewBox="0 0 19 19" fill="none" xmlns="http://www.w3.org/2000/svg">
<path d="M8.91312 0.314453C9.29185 0.314453 9.67106 0.314453 10.0498 0.314453C10.0968 0.324614 10.1434 0.340582 10.1909 0.343969C11.6014 0.448968 12.9267 0.837996 14.1418 1.5517C16.6386 3.01829 18.1696 5.16327 18.7076 7.98856C18.7718 8.32485 18.8046 8.66742 18.8516 9.0071C18.8516 9.38113 18.8516 9.75564 18.8516 10.1297C18.8414 10.1877 18.8296 10.2458 18.8203 10.3039C18.7448 10.78 18.7022 11.2634 18.5905 11.7308C17.2598 17.2875 11.1762 20.3455 5.85096 18.142C1.78687 16.4606 -0.522727 12.293 0.218559 7.9784C0.858427 4.25457 3.85199 1.2217 7.61036 0.499774C8.04053 0.417516 8.47903 0.37542 8.91312 0.314453ZM9.81266 12.1425C10.0346 12.2911 10.2418 12.429 10.4486 12.5679C11.1512 13.0387 11.8518 13.5124 12.5573 13.9783C12.9434 14.2333 13.3966 14.0698 13.4946 13.642C14.1026 10.9972 14.7082 8.35194 15.3133 5.70665C15.3779 5.42407 15.2212 5.15408 14.934 5.10327C14.7866 5.07714 14.6146 5.09698 14.4725 5.1473C10.9523 6.39374 7.43496 7.64695 3.91715 8.8992C3.69521 8.97807 3.5933 9.09661 3.5982 9.26693C3.6031 9.44451 3.71774 9.55822 3.9539 9.62161C4.77211 9.84177 5.58884 10.0658 6.40901 10.2792C6.55648 10.3174 6.62802 10.3895 6.67554 10.5308C6.97588 11.4226 7.28552 12.3114 7.59272 13.2008C7.68826 13.4766 7.86856 13.6188 8.11843 13.5743C8.2414 13.5525 8.37026 13.48 8.46384 13.3953C8.91508 12.9879 9.35505 12.5693 9.81266 12.1425Z" fill="white"/>
<path d="M7.89534 12.6764C7.87232 12.6261 7.84488 12.5772 7.82724 12.525C7.58717 11.8171 7.34808 11.1092 7.10996 10.4008C7.03304 10.1724 7.0595 10.1032 7.26528 9.98661C9.17067 8.90808 11.0761 7.83002 12.982 6.75197C13.0241 6.72826 13.0682 6.69342 13.1123 6.69197C13.1598 6.69052 13.2289 6.70939 13.2504 6.74326C13.27 6.77375 13.2495 6.84245 13.2259 6.88261C13.2034 6.92181 13.1549 6.94697 13.1172 6.97745C11.5386 8.25244 9.96095 9.52839 8.37892 10.799C8.23096 10.9181 8.1511 11.0434 8.13493 11.236C8.09965 11.6559 8.03939 12.0745 7.98794 12.493C7.98059 12.5511 7.96443 12.6077 7.95267 12.6653C7.93307 12.6692 7.91396 12.673 7.89534 12.6764Z" fill="white"/>
</svg>

<svg width="19" height="19" fill="none" xmlns="http://www.w3.org/2000/svg"><path d="M8.913.314h1.137c.047.01.093.027.14.03 1.411.105 2.737.494 3.952 1.208 2.497 1.466 4.028 3.611 4.566 6.437.064.336.097.678.144 1.018v1.123l-.032.174c-.075.476-.118.96-.23 1.427-1.33 5.557-7.414 8.615-12.739 6.411C1.787 16.461-.523 12.293.219 7.978.859 4.255 3.852 1.222 7.61.5c.43-.082.87-.125 1.303-.186zm.9 11.829l.636.425c.702.47 1.403.944 2.108 1.41.386.255.84.092.938-.336.608-2.645 1.213-5.29 1.818-7.935.065-.283-.092-.553-.379-.604a.95.95 0 00-.461.044c-3.52 1.247-7.038 2.5-10.556 3.752-.222.08-.324.198-.319.368.005.178.12.291.356.355.818.22 1.635.444 2.455.657.147.038.219.11.267.252.3.892.61 1.78.917 2.67.095.276.276.418.525.373a.74.74 0 00.346-.179c.451-.407.891-.826 1.349-1.252z" fill="#fff"/><path d="M7.895 12.676c-.023-.05-.05-.099-.068-.151l-.717-2.124c-.077-.229-.05-.298.155-.414l5.717-3.235c.042-.024.086-.059.13-.06.048-.001.117.017.138.051.02.03 0 .1-.024.14-.023.039-.071.064-.109.094A2548.438 2548.438 0 018.38 10.8a.582.582 0 00-.244.437c-.035.42-.096.838-.147 1.257-.007.058-.024.115-.035.172l-.058.011z" fill="#fff"/></svg>
